; generated by Slic3r Prusa Edition 1.40.1+win64 on 2018-08-08 at 20:58:54

; 

; external perimeters extrusion width = 0.45mm
; perimeters extrusion width = 0.45mm
; infill extrusion width = 0.45mm
; solid infill extrusion width = 0.45mm
; top infill extrusion width = 0.40mm
; first layer extrusion width = 0.42mm

M107
M115 U3.2.1 ; tell printer latest fw version
M201 X1000 Y1000 Z200 E5000 ; sets maximum accelerations, mm/sec^2
M203 X200 Y200 Z12 E120 ; sets maximum feedrates, mm/sec
M204 S1250 T1250 ; sets acceleration (S) and retract acceleration (T)
M205 X10 Y10 Z0.4 E2.5 ; sets the jerk limits, mm/sec
M205 S0 T0 ; sets the minimum extruding and travel feed rate, mm/sec
M83  ; extruder relative mode
M104 S210 ; set extruder temp
M140 S60 ; set bed temp
M190 S60 ; wait for bed temp
M109 S210 ; wait for extruder temp
G28 W ; home all without mesh bed level
G80 ; mesh bed leveling
G1 Y-3.0 F1000.0 ; go outside print area
G92 E0.0
G1 X60.0 E9.0  F1000.0 ; intro line
G1 X100.0 E12.5  F1000.0 ; intro line
G92 E0.0
M221 S95
M900 K30; Filament gcode
G21 ; set units to millimeters
G90 ; use absolute coordinates
M83 ; use relative distances for extrusion
;BEFORE_LAYER_CHANGE
G92 E0.0
;0.2


G1 E-0.80000 F2100.00000
G1 Z0.600 F10800.000
;AFTER_LAYER_CHANGE
;0.2
G1 X103.286 Y60.051
G1 Z0.200
G1 E0.80000 F2100.00000
M204 S1000
G1 F1800
G1 X104.206 Y59.478 E0.03398
G1 X105.476 Y59.003 E0.04252
G1 X106.583 Y58.826 E0.03515
G1 X143.004 Y58.811 E1.14194
G1 X144.052 Y58.902 E0.03298
G1 X145.290 Y59.252 E0.04035
G1 X146.231 Y59.722 E0.03300
G1 X147.086 Y60.353 E0.03330
G1 X147.957 Y61.297 E0.04027
G1 X148.517 Y62.197 E0.03323
G1 X148.913 Y63.176 E0.03312
G1 X149.164 Y64.454 E0.04084
G1 X149.187 Y101.077 E1.14828
G1 X149.096 Y102.061 E0.03098
G1 X148.749 Y103.289 E0.04001
G1 X148.283 Y104.222 E0.03271
G1 X147.705 Y105.020 E0.03089
G1 X146.702 Y105.958 E0.04304
G1 X145.727 Y106.554 E0.03583
G1 X144.436 Y107.020 E0.04305
G1 X143.044 Y107.188 E0.04395
G1 X106.920 Y107.187 E1.13266
G1 X105.938 Y107.096 E0.03090
G1 X104.711 Y106.749 E0.03998
G1 X103.778 Y106.284 E0.03269
G1 X102.980 Y105.705 E0.03090
G1 X102.044 Y104.704 E0.04298
G1 X101.451 Y103.738 E0.03553
G1 X100.981 Y102.437 E0.04339
G1 X100.812 Y101.043 E0.04401
G1 X100.813 Y64.920 E1.13264
G1 X100.905 Y63.937 E0.03093
G1 X101.251 Y62.711 E0.03994
G1 X101.717 Y61.778 E0.03270
G1 X102.295 Y60.980 E0.03090
G1 X103.242 Y60.092 E0.04071
G1 F8640
G1 X104.206 Y59.478 E-0.26382
G1 X105.476 Y59.003 E-0.31317
G1 X106.259 Y58.878 E-0.18302
G1 E-0.04000 F2100.00000
G1 Z0.800 F10800.000
G1 X111.585 Y68.743
G1 Z0.200
G1 E0.80000 F2100.00000
G1 F1800
G1 X111.908 Y68.431 E0.01406
G1 X112.479 Y67.937 E0.02370
G1 X113.042 Y67.486 E0.02261
G1 X114.168 Y66.680 E0.04342
G1 X114.806 Y66.275 E0.02370
G1 X115.428 Y65.911 E0.02261
G1 X116.660 Y65.277 E0.04342
G1 X117.350 Y64.969 E0.02370
G1 X118.019 Y64.699 E0.02261
G1 X119.329 Y64.252 E0.04342
G1 X120.057 Y64.047 E0.02370
G1 X120.758 Y63.878 E0.02261
G1 X122.120 Y63.626 E0.04342
G1 X122.869 Y63.529 E0.02370
G1 X123.587 Y63.464 E0.02261
G1 X124.971 Y63.413 E0.04342
G1 X125.727 Y63.426 E0.02370
G1 X126.447 Y63.466 E0.02261
G1 X127.823 Y63.618 E0.04342
G1 X128.569 Y63.741 E0.02370
G1 X129.275 Y63.885 E0.02261
G1 X130.615 Y64.235 E0.04342
G1 X131.335 Y64.466 E0.02370
G1 X132.013 Y64.711 E0.02261
G1 X133.288 Y65.253 E0.04342
G1 X133.966 Y65.586 E0.02370
G1 X134.601 Y65.927 E0.02261
G1 X135.783 Y66.649 E0.04342
G1 X136.406 Y67.077 E0.02370
G1 X136.985 Y67.507 E0.02261
G1 X138.049 Y68.393 E0.04342
G1 X138.607 Y68.911 E0.02386
G1 X139.569 Y69.908 E0.04344
G1 X140.063 Y70.479 E0.02370
G1 X140.514 Y71.042 E0.02261
G1 X141.320 Y72.168 E0.04342
G1 X141.725 Y72.806 E0.02370
G1 X142.089 Y73.428 E0.02261
G1 X142.723 Y74.660 E0.04342
G1 X143.033 Y75.355 E0.02386
G1 X143.529 Y76.648 E0.04344
G1 X143.760 Y77.368 E0.02370
G1 X143.955 Y78.062 E0.02261
G1 X144.256 Y79.414 E0.04342
G1 X144.380 Y80.159 E0.02370
G1 X144.472 Y80.875 E0.02261
G1 X144.573 Y82.256 E0.04342
G1 X144.587 Y83.017 E0.02386
G1 X144.537 Y84.401 E0.04344
G1 X144.468 Y85.154 E0.02370
G1 X144.376 Y85.869 E0.02261
G1 X144.125 Y87.231 E0.04342
G1 X143.947 Y87.965 E0.02370
G1 X143.752 Y88.659 E0.02261
G1 X143.305 Y89.970 E0.04342
G1 X143.022 Y90.671 E0.02370
G1 X142.728 Y91.329 E0.02261
G1 X142.095 Y92.561 E0.04342
G1 X141.713 Y93.213 E0.02370
G1 X141.326 Y93.822 E0.02261
G1 X140.521 Y94.948 E0.04342
G1 X140.048 Y95.538 E0.02370
G1 X139.577 Y96.083 E0.02261
G1 X138.616 Y97.081 E0.04342
G1 X138.062 Y97.596 E0.02370
G1 X137.516 Y98.066 E0.02261
G1 X136.420 Y98.913 E0.04342
G1 X135.798 Y99.342 E0.02370
G1 X135.189 Y99.728 E0.02261
G1 X133.982 Y100.406 E0.04342
G1 X133.304 Y100.740 E0.02370
G1 X132.645 Y101.034 E0.02261
G1 X131.352 Y101.529 E0.04342
G1 X130.632 Y101.760 E0.02370
G1 X129.938 Y101.955 E0.02261
G1 X128.586 Y102.256 E0.04342
G1 X127.841 Y102.380 E0.02370
G1 X127.125 Y102.472 E0.02261
G1 X125.744 Y102.573 E0.04342
G1 X124.983 Y102.587 E0.02386
G1 X123.599 Y102.537 E0.04344
G1 X122.846 Y102.468 E0.02370
G1 X122.131 Y102.376 E0.02261
G1 X120.769 Y102.125 E0.04342
G1 X120.035 Y101.947 E0.02370
G1 X119.341 Y101.752 E0.02261
G1 X118.030 Y101.305 E0.04342
G1 X117.329 Y101.022 E0.02370
G1 X116.671 Y100.728 E0.02261
G1 X115.439 Y100.095 E0.04342
G1 X114.787 Y99.713 E0.02370
G1 X114.178 Y99.326 E0.02261
G1 X113.052 Y98.521 E0.04342
G1 X112.462 Y98.048 E0.02370
G1 X111.917 Y97.577 E0.02261
G1 X110.919 Y96.616 E0.04342
G1 X110.404 Y96.062 E0.02370
G1 X109.934 Y95.516 E0.02261
G1 X109.087 Y94.420 E0.04342
G1 X108.658 Y93.798 E0.02370
G1 X108.272 Y93.189 E0.02261
G1 X107.594 Y91.982 E0.04342
G1 X107.260 Y91.304 E0.02370
G1 X106.966 Y90.645 E0.02261
G1 X106.471 Y89.352 E0.04342
G1 X106.240 Y88.632 E0.02370
G1 X106.045 Y87.938 E0.02261
G1 X105.744 Y86.586 E0.04342
G1 X105.620 Y85.841 E0.02370
G1 X105.528 Y85.125 E0.02261
G1 X105.427 Y83.744 E0.04342
G1 X105.413 Y82.989 E0.02370
G1 X105.426 Y82.268 E0.02261
G1 X105.527 Y80.886 E0.04342
G1 X105.623 Y80.137 E0.02370
G1 X105.742 Y79.426 E0.02261
G1 X106.043 Y78.074 E0.04342
G1 X106.247 Y77.346 E0.02370
G1 X106.467 Y76.660 E0.02261
G1 X106.962 Y75.366 E0.04342
G1 X107.270 Y74.676 E0.02370
G1 X107.588 Y74.029 E0.02261
G1 X108.266 Y72.821 E0.04342
G1 X108.671 Y72.183 E0.02370
G1 X109.080 Y71.589 E0.02261
G1 X109.926 Y70.493 E0.04342
G1 X110.420 Y69.921 E0.02370
G1 X110.911 Y69.393 E0.02261
G1 X111.542 Y68.784 E0.02749
G1 X111.804 Y69.056 F10800.000
G1 F1800
G1 X112.162 Y68.710 E0.01562
G1 X112.721 Y68.227 E0.02315
G1 X113.270 Y67.787 E0.02206
G1 X114.380 Y66.993 E0.04278
G1 X115.002 Y66.597 E0.02315
G1 X115.610 Y66.241 E0.02206
G1 X116.823 Y65.617 E0.04278
G1 X117.497 Y65.316 E0.02315
G1 X118.150 Y65.053 E0.02206
G1 X119.441 Y64.612 E0.04278
G1 X120.152 Y64.412 E0.02315
G1 X120.836 Y64.247 E0.02206
G1 X122.178 Y63.999 E0.04278
G1 X122.910 Y63.904 E0.02315
G1 X123.611 Y63.840 E0.02206
G1 X124.975 Y63.790 E0.04278
G1 X125.713 Y63.803 E0.02315
G1 X126.416 Y63.842 E0.02206
G1 X127.772 Y63.991 E0.04278
G1 X128.500 Y64.112 E0.02315
G1 X129.190 Y64.252 E0.02206
G1 X130.510 Y64.597 E0.04278
G1 X131.213 Y64.823 E0.02315
G1 X131.875 Y65.062 E0.02206
G1 X133.131 Y65.596 E0.04278
G1 X133.794 Y65.921 E0.02315
G1 X134.413 Y66.254 E0.02206
G1 X135.578 Y66.965 E0.04278
G1 X136.187 Y67.383 E0.02315
G1 X136.751 Y67.804 E0.02206
G1 X137.800 Y68.676 E0.04278
G1 X138.343 Y69.180 E0.02321
G1 X139.290 Y70.162 E0.04279
G1 X139.773 Y70.721 E0.02315
G1 X140.213 Y71.270 E0.02206
G1 X141.007 Y72.380 E0.04278
G1 X141.403 Y73.002 E0.02315
G1 X141.759 Y73.610 E0.02206
G1 X142.383 Y74.823 E0.04278
G1 X142.685 Y75.499 E0.02321
G1 X143.173 Y76.774 E0.04279
G1 X143.399 Y77.477 E0.02315
G1 X143.589 Y78.154 E0.02206
G1 X143.886 Y79.486 E0.04278
G1 X144.007 Y80.214 E0.02315
G1 X144.096 Y80.912 E0.02206
G1 X144.196 Y82.273 E0.04278
G1 X144.210 Y83.013 E0.02321
G1 X144.160 Y84.377 E0.04279
G1 X144.093 Y85.112 E0.02315
G1 X144.003 Y85.810 E0.02206
G1 X143.756 Y87.152 E0.04278
G1 X143.582 Y87.870 E0.02315
G1 X143.392 Y88.547 E0.02206
G1 X142.951 Y89.839 E0.04278
G1 X142.675 Y90.524 E0.02315
G1 X142.388 Y91.166 E0.02206
G1 X141.764 Y92.380 E0.04278
G1 X141.392 Y93.017 E0.02315
G1 X141.014 Y93.611 E0.02206
G1 X140.220 Y94.720 E0.04278
G1 X139.758 Y95.297 E0.02315
G1 X139.298 Y95.829 E0.02206
G1 X138.351 Y96.812 E0.04278
G1 X137.811 Y97.315 E0.02315
G1 X137.278 Y97.774 E0.02206
G1 X136.198 Y98.608 E0.04278
G1 X135.590 Y99.027 E0.02315
G1 X134.996 Y99.404 E0.02206
G1 X133.806 Y100.073 E0.04278
G1 X133.143 Y100.398 E0.02315
G1 X132.501 Y100.685 E0.02206
G1 X131.226 Y101.173 E0.04278
G1 X130.523 Y101.399 E0.02315
G1 X129.846 Y101.589 E0.02206
G1 X128.514 Y101.886 E0.04278
G1 X127.786 Y102.007 E0.02315
G1 X127.088 Y102.096 E0.02206
G1 X125.727 Y102.196 E0.04278
G1 X124.987 Y102.210 E0.02321
G1 X123.623 Y102.160 E0.04279
G1 X122.888 Y102.093 E0.02315
G1 X122.190 Y102.003 E0.02206
G1 X120.848 Y101.756 E0.04278
G1 X120.130 Y101.582 E0.02315
G1 X119.453 Y101.392 E0.02206
G1 X118.161 Y100.951 E0.04278
G1 X117.476 Y100.675 E0.02315
G1 X116.834 Y100.388 E0.02206
G1 X115.620 Y99.764 E0.04278
G1 X114.983 Y99.392 E0.02315
G1 X114.389 Y99.014 E0.02206
G1 X113.280 Y98.220 E0.04278
G1 X112.703 Y97.758 E0.02315
G1 X112.171 Y97.298 E0.02206
G1 X111.188 Y96.351 E0.04278
G1 X110.685 Y95.811 E0.02315
G1 X110.226 Y95.278 E0.02206
G1 X109.392 Y94.198 E0.04278
G1 X108.973 Y93.590 E0.02315
G1 X108.596 Y92.996 E0.02206
G1 X107.927 Y91.806 E0.04278
G1 X107.602 Y91.143 E0.02315
G1 X107.315 Y90.501 E0.02206
G1 X106.827 Y89.226 E0.04278
G1 X106.601 Y88.523 E0.02315
G1 X106.411 Y87.846 E0.02206
G1 X106.114 Y86.514 E0.04278
G1 X105.993 Y85.786 E0.02315
G1 X105.904 Y85.088 E0.02206
G1 X105.804 Y83.727 E0.04278
G1 X105.790 Y82.989 E0.02315
G1 X105.803 Y82.285 E0.02206
G1 X105.903 Y80.924 E0.04278
G1 X105.996 Y80.192 E0.02315
G1 X106.112 Y79.498 E0.02206
G1 X106.408 Y78.166 E0.04278
G1 X106.608 Y77.455 E0.02315
G1 X106.823 Y76.785 E0.02206
G1 X107.310 Y75.510 E0.04278
G1 X107.611 Y74.836 E0.02315
G1 X107.922 Y74.204 E0.02206
G1 X108.589 Y73.014 E0.04278
G1 X108.985 Y72.391 E0.02315
G1 X109.384 Y71.812 E0.02206
G1 X110.218 Y70.731 E0.04278
G1 X110.701 Y70.172 E0.02315
G1 X111.180 Y69.657 E0.02206
G1 X111.760 Y69.097 E0.02529
G1 X111.704 Y68.668 F10800.000
G1 X111.180 Y68.657
G1 F1800
G1 X110.988 Y68.883 E0.00930
G1 X110.773 Y69.087 E0.00930
G1 X110.536 Y69.266 E0.00930
G1 X110.282 Y69.419 E0.00930
G1 X110.013 Y69.543 E0.00930
G1 X109.732 Y69.638 E0.00930
G1 X109.443 Y69.702 E0.00930
G1 X109.148 Y69.734 E0.00930
G1 X108.852 Y69.734 E0.00930
G1 X108.557 Y69.702 E0.00930
G1 X108.268 Y69.638 E0.00930
G1 X107.987 Y69.543 E0.00930
G1 X107.718 Y69.419 E0.00930
G1 X107.464 Y69.266 E0.00930
G1 X107.227 Y69.087 E0.00930
G1 X107.012 Y68.883 E0.00930
G1 X106.820 Y68.657 E0.00930
G1 X106.645 Y68.399 E0.00978
G1 X106.415 Y67.902 E0.01716
G1 X106.326 Y67.590 E0.01017
G1 X106.278 Y67.296 E0.00934
G1 X106.262 Y67.000 E0.00930
G1 X106.278 Y66.704 E0.00930
G1 X106.326 Y66.411 E0.00930
G1 X106.405 Y66.126 E0.00930
G1 X106.515 Y65.850 E0.00930
G1 X106.654 Y65.588 E0.00930
G1 X106.820 Y65.343 E0.00930
G1 X107.012 Y65.117 E0.00930
G1 X107.227 Y64.913 E0.00930
G1 X107.464 Y64.734 E0.00930
G1 X107.718 Y64.581 E0.00930
G1 X107.987 Y64.457 E0.00930
G1 X108.268 Y64.362 E0.00930
G1 X108.557 Y64.298 E0.00930
G1 X108.852 Y64.266 E0.00930
G1 X109.148 Y64.266 E0.00930
G1 X109.443 Y64.298 E0.00930
G1 X109.732 Y64.362 E0.00930
G1 X110.013 Y64.457 E0.00930
G1 X110.282 Y64.581 E0.00930
G1 X110.536 Y64.734 E0.00930
G1 X110.773 Y64.913 E0.00930
G1 X110.988 Y65.117 E0.00930
G1 X111.180 Y65.343 E0.00930
G1 X111.346 Y65.588 E0.00930
G1 X111.485 Y65.850 E0.00930
G1 X111.595 Y66.126 E0.00930
G1 X111.674 Y66.411 E0.00930
G1 X111.722 Y66.704 E0.00930
G1 X111.738 Y67.000 E0.00930
G1 X111.722 Y67.296 E0.00930
G1 X111.674 Y67.589 E0.00930
G1 X111.595 Y67.874 E0.00930
G1 X111.485 Y68.150 E0.00930
G1 X111.346 Y68.412 E0.00930
G1 X111.213 Y68.607 E0.00741
G1 X110.901 Y68.396 F10800.000
G1 F1800
G1 X110.714 Y68.623 E0.00925
G1 X110.528 Y68.799 E0.00801
G1 X110.325 Y68.954 E0.00801
G1 X110.106 Y69.085 E0.00801
G1 X109.874 Y69.193 E0.00801
G1 X109.631 Y69.274 E0.00801
G1 X109.382 Y69.329 E0.00801
G1 X109.128 Y69.357 E0.00801
G1 X108.872 Y69.357 E0.00801
G1 X108.618 Y69.329 E0.00801
G1 X108.369 Y69.274 E0.00801
G1 X108.126 Y69.193 E0.00801
G1 X107.894 Y69.085 E0.00801
G1 X107.675 Y68.954 E0.00801
G1 X107.472 Y68.799 E0.00801
G1 X107.286 Y68.623 E0.00801
G1 X107.121 Y68.428 E0.00801
G1 X106.974 Y68.212 E0.00819
G1 X106.769 Y67.771 E0.01527
G1 X106.695 Y67.508 E0.00856
G1 X106.654 Y67.255 E0.00803
G1 X106.640 Y67.000 E0.00801
G1 X106.654 Y66.745 E0.00801
G1 X106.695 Y66.493 E0.00801
G1 X106.763 Y66.246 E0.00801
G1 X106.858 Y66.009 E0.00801
G1 X106.978 Y65.783 E0.00801
G1 X107.121 Y65.572 E0.00801
G1 X107.286 Y65.377 E0.00801
G1 X107.472 Y65.201 E0.00801
G1 X107.675 Y65.046 E0.00801
G1 X107.894 Y64.915 E0.00801
G1 X108.126 Y64.807 E0.00801
G1 X108.369 Y64.726 E0.00801
G1 X108.618 Y64.671 E0.00801
G1 X108.872 Y64.643 E0.00801
G1 X109.128 Y64.643 E0.00801
G1 X109.382 Y64.671 E0.00801
G1 X109.631 Y64.726 E0.00801
G1 X109.874 Y64.807 E0.00801
G1 X110.106 Y64.915 E0.00801
G1 X110.325 Y65.046 E0.00801
G1 X110.528 Y65.201 E0.00801
G1 X110.714 Y65.377 E0.00801
G1 X110.879 Y65.572 E0.00801
G1 X111.022 Y65.783 E0.00801
G1 X111.142 Y66.009 E0.00801
G1 X111.237 Y66.246 E0.00801
G1 X111.305 Y66.493 E0.00801
G1 X111.346 Y66.745 E0.00801
G1 X111.360 Y67.000 E0.00801
G1 X111.346 Y67.255 E0.00801
G1 X111.305 Y67.507 E0.00801
G1 X111.237 Y67.754 E0.00801
G1 X111.142 Y67.991 E0.00801
G1 X110.935 Y68.346 E0.01289
G1 X111.023 Y68.664 F10800.000
G1 F8640
G1 X110.714 Y68.623 E-0.08190
G1 X110.528 Y68.799 E-0.05901
G1 X110.325 Y68.954 E-0.05901
G1 X110.106 Y69.085 E-0.05901
G1 X109.874 Y69.193 E-0.05901
G1 X109.631 Y69.274 E-0.05901
G1 X109.382 Y69.329 E-0.05901
G1 X109.128 Y69.357 E-0.05901
G1 X108.872 Y69.357 E-0.05901
G1 X108.618 Y69.329 E-0.05901
G1 X108.369 Y69.274 E-0.05901
G1 X108.126 Y69.193 E-0.05901
G1 X108.012 Y69.140 E-0.02897
G1 E-0.04000 F2100.00000
G1 Z0.800 F10800.000
G1 X109.148 Y96.266
G1 Z0.200
G1 E0.80000 F2100.00000
G1 F1800
G1 X109.443 Y96.298 E0.00930
G1 X109.732 Y96.362 E0.00930
G1 X110.013 Y96.457 E0.00930
G1 X110.282 Y96.581 E0.00930
G1 X110.536 Y96.734 E0.00930
G1 X110.773 Y96.913 E0.00930
G1 X110.988 Y97.117 E0.00930
G1 X111.180 Y97.343 E0.00930
G1 X111.346 Y97.588 E0.00930
G1 X111.485 Y97.850 E0.00930
G1 X111.595 Y98.126 E0.00930
G1 X111.678 Y98.426 E0.00978
G1 X111.738 Y98.971 E0.01716
G1 X111.722 Y99.295 E0.01017
G1 X111.674 Y99.589 E0.00934
G1 X111.595 Y99.874 E0.00930
G1 X111.485 Y100.150 E0.00930
G1 X111.346 Y100.412 E0.00930
G1 X111.180 Y100.657 E0.00930
G1 X110.988 Y100.883 E0.00930
G1 X110.773 Y101.087 E0.00930
G1 X110.536 Y101.266 E0.00930
G1 X110.282 Y101.419 E0.00930
G1 X110.013 Y101.543 E0.00930
G1 X109.732 Y101.638 E0.00930
G1 X109.443 Y101.702 E0.00930
G1 X109.148 Y101.734 E0.00930
G1 X108.852 Y101.734 E0.00930
G1 X108.557 Y101.702 E0.00930
G1 X108.268 Y101.638 E0.00930
G1 X107.987 Y101.543 E0.00930
G1 X107.718 Y101.419 E0.00930
G1 X107.464 Y101.266 E0.00930
G1 X107.227 Y101.087 E0.00930
G1 X107.012 Y100.883 E0.00930
G1 X106.820 Y100.657 E0.00930
G1 X106.654 Y100.412 E0.00930
G1 X106.515 Y100.150 E0.00930
G1 X106.405 Y99.874 E0.00930
G1 X106.322 Y99.574 E0.00978
G1 X106.262 Y99.029 E0.01716
G1 X106.278 Y98.705 E0.01017
G1 X106.326 Y98.411 E0.00934
G1 X106.405 Y98.126 E0.00930
G1 X106.515 Y97.850 E0.00930
G1 X106.654 Y97.588 E0.00930
G1 X106.820 Y97.343 E0.00930
G1 X107.012 Y97.117 E0.00930
G1 X107.227 Y96.913 E0.00930
G1 X107.464 Y96.734 E0.00930
G1 X107.718 Y96.581 E0.00930
G1 X107.987 Y96.457 E0.00930
G1 X108.268 Y96.362 E0.00930
G1 X108.557 Y96.298 E0.00930
G1 X108.852 Y96.266 E0.00930
G1 X109.088 Y96.266 E0.00741
G1 X109.088 Y96.643 F10800.000
G1 F1800
G1 X109.382 Y96.671 E0.00925
G1 X109.631 Y96.726 E0.00801
G1 X109.874 Y96.807 E0.00801
G1 X110.106 Y96.915 E0.00801
G1 X110.325 Y97.046 E0.00801
G1 X110.528 Y97.201 E0.00801
G1 X110.714 Y97.377 E0.00801
