; generated by Slic3r Prusa Edition 1.40.1+win64 on 2018-08-08 at 21:01:06

; 

; external perimeters extrusion width = 0.45mm
; perimeters extrusion width = 0.45mm
; infill extrusion width = 0.45mm
; solid infill extrusion width = 0.45mm
; top infill extrusion width = 0.40mm
; first layer extrusion width = 0.42mm

M107
M115 U3.2.1 ; tell printer latest fw version
M201 X1000 Y1000 Z200 E5000 ; sets maximum accelerations, mm/sec^2
M203 X200 Y200 Z12 E120 ; sets maximum feedrates, mm/sec
M204 S1250 T1250 ; sets acceleration (S) and retract acceleration (T)
M205 X10 Y10 Z0.4 E2.5 ; sets the jerk limits, mm/sec
M205 S0 T0 ; sets the minimum extruding and travel feed rate, mm/sec
M83  ; extruder relative mode
M104 S210 ; set extruder temp
M140 S60 ; set bed temp
M190 S60 ; wait for bed temp
M109 S210 ; wait for extruder temp
G28 W ; home all without mesh bed level
G80 ; mesh bed leveling
G1 Y-3.0 F1000.0 ; go outside print area
G92 E0.0
G1 X60.0 E9.0  F1000.0 ; intro line
G1 X100.0 E12.5  F1000.0 ; intro line
G92 E0.0
M221 S95
M900 K30; Filament gcode
G21 ; set units to millimeters
G90 ; use absolute coordinates
M83 ; use relative distances for extrusion
;BEFORE_LAYER_CHANGE
G92 E0.0
;0.2


G1 E-0.80000 F2100.00000
G1 Z0.600 F10800.000
;AFTER_LAYER_CHANGE
;0.2
G1 X111.859 Y62.398
G1 Z0.200
G1 E0.80000 F2100.00000
M204 S1000
G1 F1800
G1 X112.943 Y61.713 E0.04020
G1 X113.854 Y61.337 E0.03090
G1 X115.185 Y61.045 E0.04273
G1 X134.058 Y61.001 E0.59176
G1 X134.998 Y61.069 E0.02956
G1 X136.265 Y61.375 E0.04085
G1 X137.124 Y61.748 E0.02936
G1 X138.167 Y62.418 E0.03887
G1 X138.835 Y63.027 E0.02834
G1 X139.621 Y64.019 E0.03970
G1 X140.205 Y65.175 E0.04062
G1 X140.482 Y66.089 E0.02993
G1 X140.641 Y67.488 E0.04415
G1 X140.607 Y82.066 E0.45708
G1 X140.450 Y82.971 E0.02878
G1 X140.021 Y84.185 E0.04037
G1 X139.596 Y84.946 E0.02734
G1 X138.850 Y85.887 E0.03763
G1 X138.106 Y86.551 E0.03129
G1 X136.892 Y87.279 E0.04435
G1 X135.613 Y87.711 E0.04236
G1 X134.205 Y87.870 E0.04442
G1 X115.177 Y87.837 E0.59659
G1 X114.225 Y87.670 E0.03032
G1 X113.061 Y87.258 E0.03870
G1 X112.267 Y86.815 E0.02851
G1 X111.349 Y86.086 E0.03674
G1 X110.671 Y85.325 E0.03197
G1 X109.950 Y84.120 E0.04404
G1 X109.518 Y82.842 E0.04231
G1 X109.359 Y81.459 E0.04364
G1 X109.400 Y66.790 E0.45994
G1 X109.575 Y65.853 E0.02987
G1 X109.975 Y64.756 E0.03662
G1 X110.387 Y64.008 E0.02676
G1 X110.913 Y63.304 E0.02758
G1 X111.816 Y62.439 E0.03919
G1 F8640
G1 X112.943 Y61.713 E-0.30963
G1 X113.854 Y61.337 E-0.22755
G1 X114.796 Y61.130 E-0.22282
G1 E-0.04000 F2100.00000
G1 Z0.800 F10800.000
G1 X113.223 Y61.995
G1 Z0.200
G1 E0.80000 F2100.00000
G1 F1800
G1 X114.361 Y61.581 E0.03798
G1 X115.257 Y61.417 E0.02856
G1 X134.058 Y61.378 E0.58948
G1 X134.938 Y61.441 E0.02768
G1 X136.164 Y61.739 E0.03954
G1 X137.295 Y62.274 E0.03923
G1 X138.037 Y62.799 E0.02850
G1 X138.848 Y63.602 E0.03580
G1 X139.376 Y64.344 E0.02855
G1 X139.895 Y65.417 E0.03738
G1 X140.195 Y66.604 E0.03838
G1 X140.264 Y67.502 E0.02824
G1 X140.231 Y82.040 E0.45580
G1 X140.085 Y82.874 E0.02656
G1 X139.677 Y84.031 E0.03846
G1 X139.281 Y84.739 E0.02542
G1 X138.560 Y85.645 E0.03633
G1 X137.883 Y86.247 E0.02839
G1 X136.738 Y86.934 E0.04188
G1 X135.531 Y87.343 E0.03994
G1 X134.200 Y87.493 E0.04200
G1 X115.214 Y87.461 E0.59529
G1 X114.323 Y87.305 E0.02838
G1 X113.212 Y86.912 E0.03695
G1 X112.476 Y86.501 E0.02642
G1 X111.591 Y85.796 E0.03549
G1 X110.975 Y85.102 E0.02911
G1 X110.292 Y83.961 E0.04168
G1 X109.885 Y82.753 E0.03996
G1 X109.736 Y81.424 E0.04193
G1 X109.778 Y66.802 E0.45847
G1 X109.943 Y65.937 E0.02762
G1 X110.354 Y64.832 E0.03694
G1 X110.771 Y64.111 E0.02611
G1 X111.473 Y63.250 E0.03483
G1 X112.165 Y62.639 E0.02895
G1 X113.171 Y62.026 E0.03695
G1 F8640
G1 X114.361 Y61.581 E-0.29327
G1 X115.257 Y61.417 E-0.21035
G1 X116.367 Y61.414 E-0.25638
G1 E-0.04000 F2100.00000
G1 Z0.800 F10800.000
G1 X115.993 Y80.213
G1 Z0.200
G1 E0.80000 F2100.00000
G1 F1800
G1 X116.554 Y80.256 E0.01764
G1 X117.043 Y80.348 E0.01561
G1 X117.065 Y80.649 E0.00945
G1 X117.044 Y81.234 E0.01835
G1 X116.028 Y81.234 E0.03187
G1 X115.865 Y84.717 E0.10934
G1 X115.446 Y84.695 E0.01315
G1 X115.033 Y84.622 E0.01315
G1 X114.720 Y84.532 E0.01020
G1 X114.379 Y84.393 E0.01156
G1 X114.058 Y84.218 E0.01147
G1 X113.760 Y84.009 E0.01141
G1 X113.460 Y83.742 E0.01259
G1 X113.220 Y83.470 E0.01139
G1 X113.010 Y83.170 E0.01146
G1 X112.835 Y82.849 E0.01147
G1 X112.696 Y82.508 E0.01155
G1 X112.595 Y82.151 E0.01161
G1 X112.534 Y81.784 E0.01169
G1 X112.512 Y81.361 E0.01325
G1 X115.993 Y81.198 E0.10927
G1 X115.993 Y80.273 E0.02901
G1 F8640
G1 X116.554 Y80.256 E-0.12958
G1 X117.043 Y80.348 E-0.11499
G1 X117.065 Y80.649 E-0.06959
G1 X117.044 Y81.234 E-0.13515
G1 X116.028 Y81.234 E-0.23472
G1 X116.013 Y81.562 E-0.07598
G1 E-0.04000 F2100.00000
G1 Z0.800 F10800.000
G1 X116.388 Y81.611
G1 Z0.200
G1 E0.80000 F2100.00000
G1 F1800
G1 X116.225 Y85.094 E0.10934
G1 X115.402 Y85.070 E0.02580
G1 X114.948 Y84.990 E0.01446
G1 X114.597 Y84.889 E0.01145
G1 X114.217 Y84.734 E0.01287
G1 X113.859 Y84.539 E0.01279
G1 X113.525 Y84.305 E0.01277
G1 X113.193 Y84.008 E0.01399
G1 X112.923 Y83.703 E0.01275
G1 X112.689 Y83.369 E0.01279
G1 X112.494 Y83.011 E0.01280
G1 X112.339 Y82.630 E0.01287
G1 X112.227 Y82.234 E0.01292
G1 X112.159 Y81.826 E0.01298
G1 X112.134 Y81.002 E0.02585
G1 X115.616 Y80.839 E0.10928
G1 X115.616 Y79.821 E0.03189
G1 X115.781 Y79.819 E0.00519
G1 X116.602 Y79.882 E0.02581
G1 X117.087 Y79.970 E0.01546
G1 X117.400 Y80.052 E0.01013
G1 X117.443 Y80.642 E0.01854
G1 X117.408 Y81.611 E0.03040
G1 X116.448 Y81.611 E0.03012
G1 X115.997 Y81.697 F10800.000
G1 X116.688 Y81.121
G1 F1800
G1 X116.106 Y80.539 E0.03096
G1 F8640
G1 X116.688 Y81.121 E-0.19000
G1 E-0.61000 F2100.00000
G1 Z0.800 F10800.000
G1 X115.873 Y82.134
G1 Z0.200
G1 E0.80000 F2100.00000
G1 F1800
G1 X115.254 Y81.516 E0.03074
G1 X114.683 Y81.543 E0.02010
G1 X115.684 Y82.543 E0.04973
G1 X115.657 Y83.114 E0.02010
G1 X114.112 Y81.570 E0.07680
G1 X113.541 Y81.596 E0.02010
G1 X115.630 Y83.685 E0.10386
G1 X115.603 Y84.257 E0.02010
G1 X112.970 Y81.623 E0.13092
G1 X112.809 Y81.631 E0.00566
G1 X112.885 Y82.136 E0.01797
G1 X115.304 Y84.555 E0.12024
G1 X114.452 Y84.301 F10800.000
G1 F1800
G1 X112.928 Y82.777 E0.07574
G1 F8640
G1 X114.452 Y84.301 E-0.49752
G1 E-0.30248 F2100.00000
G1 Z0.800 F10800.000
G1 X132.949 Y81.234
G1 Z0.200
G1 E0.80000 F2100.00000
G1 F1800
G1 X132.930 Y80.525 E0.02224
G1 X132.961 Y80.372 E0.00487
G1 X133.012 Y80.239 E0.00448
G1 X133.082 Y80.132 E0.00402
G1 X134.007 Y80.175 E0.02903
G1 X134.007 Y81.198 E0.03209
G1 X137.488 Y81.361 E0.10928
G1 X137.466 Y81.788 E0.01340
G1 X137.403 Y82.158 E0.01176
G1 X137.301 Y82.516 E0.01168
G1 X137.160 Y82.859 E0.01161
G1 X136.983 Y83.181 E0.01153
G1 X136.771 Y83.481 E0.01152
G1 X136.527 Y83.755 E0.01150
G1 X136.253 Y84.000 E0.01150
G1 X135.953 Y84.212 E0.01152
G1 X135.631 Y84.389 E0.01153
G1 X135.289 Y84.529 E0.01161
G1 X134.931 Y84.632 E0.01167
G1 X134.561 Y84.694 E0.01176
G1 X134.135 Y84.717 E0.01338
G1 X133.972 Y81.234 E0.10934
G1 X133.009 Y81.234 E0.03019
G1 F8640
G1 X132.930 Y80.525 E-0.16473
G1 X132.961 Y80.372 E-0.03589
G1 X133.012 Y80.239 E-0.03298
G1 X133.082 Y80.132 E-0.02957
G1 X134.007 Y80.175 E-0.21381
G1 X134.007 Y81.198 E-0.23631
G1 X134.209 Y81.208 E-0.04671
G1 E-0.04000 F2100.00000
G1 Z0.800 F10800.000
G1 X134.384 Y80.839
G1 Z0.200
G1 E0.80000 F2100.00000
G1 F1800
G1 X137.866 Y81.002 E0.10928
G1 X137.841 Y81.831 E0.02600
G1 X137.771 Y82.241 E0.01307
G1 X137.658 Y82.640 E0.01300
G1 X137.501 Y83.022 E0.01294
G1 X137.304 Y83.381 E0.01286
G1 X137.067 Y83.717 E0.01286
G1 X136.794 Y84.022 E0.01285
G1 X136.489 Y84.295 E0.01284
G1 X136.154 Y84.532 E0.01286
G1 X135.794 Y84.729 E0.01286
G1 X135.413 Y84.886 E0.01293
G1 X135.014 Y85.000 E0.01299
G1 X134.604 Y85.070 E0.01306
G1 X133.775 Y85.094 E0.02599
G1 X133.612 Y81.611 E0.10934
G1 X132.589 Y81.611 E0.03207
G1 X132.547 Y80.700 E0.02858
G1 X132.554 Y80.481 E0.00688
G1 X132.597 Y80.266 E0.00688
G1 X132.675 Y80.067 E0.00670
G1 X132.820 Y79.842 E0.00840
G1 X132.942 Y79.765 E0.00451
G1 X133.054 Y79.753 E0.00352
G1 X134.384 Y79.815 E0.04176
G1 X134.384 Y80.779 E0.03021
G1 X134.488 Y81.225 F10800.000
G1 X133.894 Y81.119
G1 F1800
G1 X133.100 Y80.326 E0.03841
G1 F8640
G1 X133.894 Y81.119 E-0.25914
G1 E-0.54086 F2100.00000
G1 Z0.800 F10800.000
G1 X134.202 Y83.732
G1 Z0.200
G1 E0.80000 F2100.00000
G1 F1800
G1 X134.832 Y84.362 E0.03013
G1 X135.275 Y84.229 E0.01565
G1 X134.352 Y83.306 E0.04417
G1 X134.324 Y82.703 E0.02046
G1 X135.667 Y84.046 E0.06430
G1 X136.017 Y83.820 E0.01409
G1 X134.296 Y82.099 E0.08239
G1 X134.267 Y81.495 E0.02046
G1 X136.327 Y83.555 E0.09857
G1 X136.592 Y83.244 E0.01381
G1 X134.870 Y81.522 E0.08244
G1 X135.474 Y81.550 E0.02046
G1 X136.818 Y82.894 E0.06434
G1 X137.001 Y82.502 E0.01466
G1 X136.078 Y81.578 E0.04419
G1 X136.681 Y81.607 E0.02046
G1 X137.274 Y82.199 E0.02835
G1 F8640
G1 X136.681 Y81.607 E-0.19342
G1 X136.078 Y81.578 E-0.13958
G1 X137.001 Y82.502 E-0.30154
G1 X136.818 Y82.894 E-0.10001
G1 X136.740 Y82.817 E-0.02545
G1 E-0.04000 F2100.00000
G1 Z0.800 F10800.000
G1 X134.007 Y68.470
G1 Z0.200
G1 E0.80000 F2100.00000
G1 F1800
G1 X133.223 Y68.484 E0.02459
G1 X133.198 Y68.299 E0.00585
G1 X133.105 Y67.907 E0.01264
G1 X132.970 Y67.519 E0.01288
G1 X132.798 Y67.148 E0.01283
G1 X132.588 Y66.791 E0.01298
G1 X132.338 Y66.455 E0.01314
G1 X132.094 Y66.186 E0.01139
G1 X131.662 Y65.811 E0.01793
G1 X131.270 Y65.550 E0.01476
G1 X130.857 Y65.337 E0.01459
G1 X130.425 Y65.174 E0.01447
G1 X129.988 Y65.061 E0.01416
G1 X129.554 Y64.998 E0.01374
G1 X129.171 Y64.979 E0.01201
G1 X120.831 Y64.979 E0.26150
G1 X120.498 Y64.993 E0.01045
G1 X120.104 Y65.044 E0.01246
G1 X119.692 Y65.140 E0.01324
G1 X119.094 Y65.358 E0.01999
G1 X118.571 Y65.651 E0.01877
G1 X118.352 Y65.801 E0.00834
G1 X118.014 Y66.083 E0.01378
G1 X117.602 Y66.527 E0.01901
G1 X117.270 Y67.028 E0.01884
G1 X117.123 Y67.298 E0.00964
G1 X116.948 Y67.730 E0.01463
G1 X116.809 Y68.258 E0.01711
G1 X116.779 Y68.484 E0.00715
G1 X115.993 Y68.470 E0.02464
G1 X115.993 Y67.467 E0.03146
G1 X112.516 Y67.405 E0.10903
G1 X112.539 Y67.085 E0.01005
G1 X112.606 Y66.724 E0.01151
G1 X112.712 Y66.373 E0.01149
G1 X112.855 Y66.038 E0.01144
G1 X113.055 Y65.691 E0.01256
G1 X113.251 Y65.421 E0.01044
G1 X113.498 Y65.148 E0.01156
G1 X113.774 Y64.904 E0.01155
G1 X114.074 Y64.691 E0.01154
G1 X114.436 Y64.492 E0.01295
G1 X114.781 Y64.350 E0.01169
G1 X115.142 Y64.246 E0.01179
G1 X115.512 Y64.181 E0.01177
G1 X115.964 Y64.153 E0.01419
G1 X134.064 Y64.154 E0.56753
G1 X134.498 Y64.182 E0.01363
G1 X134.869 Y64.249 E0.01183
G1 X135.232 Y64.355 E0.01183
G1 X135.579 Y64.498 E0.01178
G1 X135.907 Y64.678 E0.01173
G1 X136.212 Y64.892 E0.01168
G1 X136.491 Y65.136 E0.01163
G1 X136.740 Y65.409 E0.01159
G1 X136.957 Y65.707 E0.01156
G1 X137.139 Y66.027 E0.01154
G1 X137.285 Y66.365 E0.01153
G1 X137.392 Y66.716 E0.01153
G1 X137.460 Y67.078 E0.01154
G1 X137.484 Y67.405 E0.01026
G1 X134.007 Y67.467 E0.10904
G1 X134.007 Y68.410 E0.02958
G1 X134.384 Y67.837 F10800.000
G1 F1800
G1 X134.384 Y68.841 E0.03146
G1 X132.878 Y68.867 E0.04721
G1 X132.827 Y68.368 E0.01575
G1 X132.743 Y68.013 E0.01143
G1 X132.620 Y67.661 E0.01169
G1 X132.464 Y67.323 E0.01167
G1 X132.273 Y67.000 E0.01176
G1 X132.046 Y66.695 E0.01193
G1 X131.829 Y66.456 E0.01012
G1 X131.433 Y66.111 E0.01647
G1 X131.079 Y65.875 E0.01333
G1 X130.703 Y65.682 E0.01325
G1 X130.311 Y65.534 E0.01315
G1 X129.913 Y65.432 E0.01288
G1 X129.517 Y65.373 E0.01254
G1 X129.162 Y65.356 E0.01115
G1 X120.839 Y65.356 E0.26097
G1 X120.530 Y65.369 E0.00968
G1 X120.171 Y65.416 E0.01137
G1 X119.800 Y65.502 E0.01193
G1 X119.252 Y65.702 E0.01831
G1 X118.770 Y65.972 E0.01731
G1 X118.579 Y66.102 E0.00724
G1 X118.275 Y66.357 E0.01246
G1 X117.899 Y66.761 E0.01730
G1 X117.593 Y67.223 E0.01736
G1 X117.464 Y67.459 E0.00845
G1 X117.306 Y67.850 E0.01321
G1 X117.179 Y68.331 E0.01561
G1 X117.121 Y68.867 E0.01692
G1 X115.616 Y68.841 E0.04718
G1 X115.616 Y67.837 E0.03146
G1 X112.135 Y67.775 E0.10918
G1 X112.135 Y67.450 E0.01021
G1 X112.165 Y67.037 E0.01297
G1 X112.239 Y66.635 E0.01282
G1 X112.357 Y66.244 E0.01280
G1 X112.517 Y65.869 E0.01278
G1 X112.738 Y65.485 E0.01389
G1 X112.958 Y65.183 E0.01172
G1 X113.233 Y64.880 E0.01283
G1 X113.539 Y64.608 E0.01284
G1 X113.874 Y64.371 E0.01285
G1 X114.273 Y64.151 E0.01429
G1 X114.657 Y63.994 E0.01301
G1 X115.057 Y63.878 E0.01306
G1 X115.468 Y63.806 E0.01307
G1 X115.952 Y63.776 E0.01523
G1 X134.077 Y63.777 E0.56828
G1 X134.544 Y63.807 E0.01468
G1 X134.956 Y63.881 E0.01313
G1 X135.357 Y63.998 E0.01310
G1 X135.742 Y64.158 E0.01306
G1 X136.106 Y64.357 E0.01301
G1 X136.445 Y64.595 E0.01297
G1 X136.755 Y64.867 E0.01293
G1 X137.032 Y65.170 E0.01290
G1 X137.274 Y65.502 E0.01287
G1 X137.477 Y65.858 E0.01286
G1 X137.640 Y66.235 E0.01285
G1 X137.759 Y66.627 E0.01285
G1 X137.834 Y67.030 E0.01286
G1 X137.865 Y67.443 E0.01301
G1 X137.865 Y67.775 E0.01040
G1 X134.444 Y67.836 E0.10729
G1 X133.984 Y67.852 F10800.000
G1 X133.894 Y68.342
G1 F1800
G1 X133.100 Y67.548 E0.03564
G1 F8640
G1 X133.894 Y68.342 E-0.25924
G1 E-0.54076 F2100.00000
G1 Z0.800 F10800.000
G1 X135.578 Y64.627
G1 Z0.200
G1 E0.80000 F2100.00000
G1 F1800
G1 X137.045 Y66.095 E0.06590
G1 X137.312 Y66.901 F10800.000
G1 F1800
G1 X134.989 Y64.578 E0.10427
G1 X134.805 Y64.524 E0.00611
G1 X134.464 Y64.463 E0.01099
G1 X134.325 Y64.454 E0.00442
G1 X137.001 Y67.131 E0.12016
G1 X136.471 Y67.140 E0.01684
G1 X133.767 Y64.436 E0.12137
G1 X133.228 Y64.436 E0.01714
G1 X135.941 Y67.149 E0.12180
G1 X135.410 Y67.159 E0.01684
G1 X132.688 Y64.436 E0.12222
G1 X132.148 Y64.436 E0.01714
G1 X134.880 Y67.168 E0.12265
G1 X134.349 Y67.178 E0.01684
G1 X131.608 Y64.436 E0.12307
G1 X131.068 Y64.436 E0.01714
G1 X133.819 Y67.187 E0.12350
G1 X133.724 Y67.189 E0.00300
G1 X133.724 Y67.633 E0.01408
G1 X130.528 Y64.436 E0.14349
G1 X129.988 Y64.436 E0.01714
G1 X130.436 Y64.885 E0.02012
G1 X130.043 Y64.784 E0.01287
G1 X129.753 Y64.741 E0.00932
G1 X129.448 Y64.436 E0.01368
G1 X128.908 Y64.436 E0.01714
G1 X129.168 Y64.696 E0.01168
G1 X128.628 Y64.696 E0.01714
G1 X128.368 Y64.436 E0.01168
G1 X127.828 Y64.436 E0.01714
G1 X128.088 Y64.696 E0.01168
G1 X127.549 Y64.696 E0.01714
G1 X127.288 Y64.436 E0.01168
G1 X126.749 Y64.436 E0.01714
G1 X127.009 Y64.696 E0.01168
G1 X126.469 Y64.696 E0.01714
G1 X126.209 Y64.436 E0.01168
G1 X125.669 Y64.436 E0.01714
G1 X125.929 Y64.696 E0.01168
G1 X125.389 Y64.696 E0.01714
G1 X125.129 Y64.436 E0.01168
G1 X124.589 Y64.436 E0.01714
G1 X124.849 Y64.696 E0.01168
G1 X124.309 Y64.696 E0.01714
G1 X124.049 Y64.436 E0.01168
G1 X123.509 Y64.436 E0.01714
G1 X123.769 Y64.696 E0.01168
G1 X123.229 Y64.696 E0.01714
G1 X122.969 Y64.436 E0.01168
G1 X122.429 Y64.436 E0.01714
G1 X122.689 Y64.696 E0.01168
G1 X122.149 Y64.696 E0.01714
G1 X121.889 Y64.436 E0.01168
G1 X121.349 Y64.436 E0.01714
G1 X121.610 Y64.696 E0.01168
G1 X121.070 Y64.696 E0.01714
G1 X120.809 Y64.436 E0.01168
G1 X120.270 Y64.436 E0.01714
G1 X120.542 Y64.708 E0.01221
G1 X120.059 Y64.765 E0.01544
G1 X119.730 Y64.436 E0.01476
G1 X119.190 Y64.436 E0.01714
G1 X119.620 Y64.866 E0.01930
G1 X119.223 Y65.010 E0.01338
G1 X118.650 Y64.436 E0.02575
G1 X118.110 Y64.436 E0.01714
G1 X118.846 Y65.173 E0.03307
G1 X118.501 Y65.367 E0.01259
G1 X117.570 Y64.436 E0.04178
G1 X117.030 Y64.436 E0.01714
G1 X118.174 Y65.581 E0.05138
G1 X117.880 Y65.827 E0.01217
G1 X116.490 Y64.436 E0.06242
G1 X115.972 Y64.436 E0.01644
G1 X115.951 Y64.437 E0.00066
G1 X117.613 Y66.099 E0.07461
G1 X117.358 Y66.383 E0.01214
G1 X115.453 Y64.478 E0.08552
G1 X115.012 Y64.578 E0.01433
G1 X117.142 Y66.708 E0.09563
G1 X116.939 Y67.044 E0.01248
G1 X114.617 Y64.723 E0.10421
G1 X114.264 Y64.909 E0.01269
G1 X116.770 Y67.416 E0.11251
G1 X116.679 Y67.641 E0.00772
G1 X116.632 Y67.818 E0.00580
G1 X113.945 Y65.130 E0.12065
G1 X113.662 Y65.388 E0.01213
G1 X115.449 Y67.174 E0.08019
G1 X114.899 Y67.164 E0.01745
G1 X113.413 Y65.679 E0.06671
G1 X113.200 Y66.005 E0.01239
G1 X114.349 Y67.155 E0.05159
G1 X113.800 Y67.145 E0.01745
G1 X113.022 Y66.367 E0.03491
G1 X112.887 Y66.772 E0.01354
G1 X113.423 Y67.308 E0.02405
G1 F8640
